packages/kaspersky-hexa-ui-icons/src/iconsSVGs/32/Antivirus.svg

<svg width="32" height="32" viewBox="0 0 32 32" fill="none" xmlns="http://www.w3.org/2000/svg">
<path d="M4 16C4 9.37258 9.37258 4 16 4C18.9541 4 21.6576 5.0664 23.7489 6.83692L21.6176 8.96814C20.0784 7.73714 18.1246 7 16 7C11.0294 7 7 11.0294 7 16C7 20.9706 11.0294 25 16 25C20.4373 25 24.1228 21.7897 24.8642 17.5651C24.9597 17.0212 24.5961 16.5028 24.0521 16.4073C23.5081 16.3119 22.9898 16.6755 22.8943 17.2194C22.3179 20.504 19.4494 23 16 23C12.134 23 9 19.866 9 16C9 12.134 12.134 9 16 9C17.5728 9 19.0233 9.51782 20.1922 10.3935L17.2934 13.2924C16.9018 13.105 16.4631 13 16 13C14.3431 13 13 14.3431 13 16C13 17.6569 14.3431 19 16 19C17.6569 19 19 17.6569 19 16C19 15.5369 18.895 15.0982 18.7076 14.7066L25.7071 7.70711C25.8398 7.57437 25.9275 7.41361 25.97 7.24387C26.2032 6.85661 26.1502 6.34623 25.8137 6.01544C23.2883 3.53301 19.8222 2 16 2C8.26801 2 2 8.26801 2 16C2 23.732 8.26801 30 16 30C22.9403 30 28.6994 24.9508 29.8076 18.3254C29.8987 17.7807 29.531 17.2652 28.9863 17.1741C28.4416 17.083 27.9261 17.4507 27.835 17.9954C26.8854 23.6729 21.947 28 16 28C9.37258 28 4 22.6274 4 16Z" fill="black"/>
</svg>

<svg xmlns="http://www.w3.org/2000/svg" width="32" height="32" fill="none" viewBox="0 0 32 32"><path fill="#000" d="M4 16C4 9.3726 9.3726 4 16 4c2.9541 0 5.6576 1.0664 7.7489 2.837l-2.1313 2.131C20.0784 7.7371 18.1246 7 16 7c-4.9706 0-9 4.0294-9 9s4.0294 9 9 9c4.4373 0 8.1228-3.2103 8.8642-7.4349.0955-.5439-.2681-1.0623-.8121-1.1578s-1.0623.2682-1.1578.8121C22.3179 20.504 19.4494 23 16 23c-3.866 0-7-3.134-7-7s3.134-7 7-7c1.5728 0 3.0233.5178 4.1922 1.3935l-2.8988 2.8989A2.99 2.99 0 0 0 16 13c-1.6569 0-3 1.3431-3 3s1.3431 3 3 3 3-1.3431 3-3c0-.4631-.105-.9018-.2924-1.2934l6.9995-6.9995a.996.996 0 0 0 .2629-.4632c.2332-.3873.1802-.8977-.1563-1.2285C23.2883 3.533 19.8222 2 16 2 8.268 2 2 8.268 2 16s6.268 14 14 14c6.9403 0 12.6994-5.0492 13.8076-11.6746.0911-.5447-.2766-1.0602-.8213-1.1513s-1.0602.2766-1.1513.8213C26.8854 23.6729 21.947 28 16 28 9.3726 28 4 22.6274 4 16"/></svg>
